frontend/public/svg/finance/trend-up.svg

<svg width="155" height="76" viewBox="0 0 155 76" fill="none" xmlns="http://www.w3.org/2000/svg">
<g clip-path="url(#clip0)">
<path d="M5.23656 74.9811C5.88372 74.9733 6.51912 74.8079 7.08796 74.4994L7.60458 74.2316C8.4865 73.8207 9.31966 73.3127 10.0888 72.7168L11.9738 71.1409C16.2735 67.552 20.7201 63.8427 24.9857 60.0648C33.2476 52.7479 41.6271 45.2474 49.7296 37.9935C52.9273 35.1306 56.1329 32.2629 59.3463 29.3903C59.5813 29.5675 59.7979 29.7276 60.0027 29.8779C60.5015 30.2314 60.9811 30.6112 61.4393 31.0159L66.3799 35.59C72.8599 41.5876 79.5598 47.7894 86.0937 53.9479C89.5066 57.1639 91.9738 57.3765 95.5338 54.7649C96.1337 54.3239 96.7152 53.8512 97.275 53.3931C97.6642 53.0768 98.0521 52.7592 98.4492 52.4514C111.483 42.3438 124.52 32.2394 137.562 22.1384C138.365 21.5168 139.19 20.9438 140.146 20.2809L140.606 19.9593C140.61 20.0728 140.601 20.1864 140.576 20.2974C139.59 24.1348 138.598 27.9713 137.602 31.8069C136.544 35.8841 135.49 39.9616 134.44 44.0397L134.33 44.4604C133.992 45.5494 133.802 46.6788 133.766 47.8183C133.792 49.0047 134.196 50.1517 134.919 51.0929C135.641 52.034 136.645 52.7202 137.785 53.0516C138.924 53.3831 140.14 53.3427 141.255 52.9361C142.369 52.5295 143.326 51.778 143.985 50.7908C144.693 49.6872 145.201 48.4661 145.482 47.1848C147.791 36.5049 150.824 22.4062 153.809 8.05403C154.269 5.86648 153.937 4.01434 152.858 2.69839C151.748 1.34371 149.913 0.628906 147.542 0.628906H147.46C146.4 0.636782 145.34 0.65506 144.281 0.674094C142.912 0.697722 141.543 0.722005 140.175 0.722005C140.047 0.722005 139.919 0.722005 139.788 0.722005C126.71 0.783354 113.649 1.68225 100.687 3.41305C99.0189 3.62636 96.7893 4.2308 96.6758 7.00448C96.5859 9.21371 98.1335 10.7772 100.715 11.0837C102.091 11.2232 103.477 11.2529 104.858 11.1723C110.219 10.9426 115.579 10.7056 120.939 10.4615C125.11 10.2746 129.281 10.0894 133.452 9.90562C134.088 9.8774 134.743 9.87805 135.477 9.88593L90.7044 44.3981L89.5283 43.3263C87.1248 41.1262 84.7232 38.9241 82.3237 36.7196C76.4704 31.3488 70.4177 25.7949 64.4257 20.3722C60.974 17.2481 58.1249 17.1311 54.895 19.9882L53.0265 21.6428C45.2062 28.5645 37.1194 35.7219 29.2374 42.8425C20.6394 50.607 12.1287 58.4942 5.67497 64.5016C4.25675 65.8423 3.00096 67.3446 1.93372 68.9783C1.42963 69.7271 1.21694 70.6342 1.33555 71.5288C1.45415 72.424 1.89598 73.2445 2.57772 73.8358C3.27763 74.5538 4.23368 74.966 5.23656 74.9811Z" fill="black"/>
</g>
<defs>
<clipPath id="clip0">
<rect width="153.583" height="74.8225" fill="white" transform="translate(0.734619 0.178711)"/>
</clipPath>
</defs>
</svg>

<svg xmlns="http://www.w3.org/2000/svg" width="155" height="76" fill="none" viewBox="0 0 155 76"><g clip-path="url(#a)"><path fill="#000" d="M5.237 74.981a4 4 0 0 0 1.851-.482l.517-.267a13 13 0 0 0 2.484-1.515l1.885-1.576c4.3-3.589 8.746-7.298 13.012-11.076 8.262-7.317 16.641-14.818 24.744-22.071q4.796-4.294 9.616-8.604.351.264.657.488.748.53 1.436 1.138l4.94 4.574c6.48 5.998 13.18 12.2 19.715 18.358 3.413 3.216 5.88 3.428 9.44.817a43 43 0 0 0 1.741-1.372c.39-.316.777-.634 1.174-.942a79711 79711 0 0 1 39.113-30.313c.803-.621 1.628-1.194 2.584-1.857l.46-.322q.007.171-.03.338a4649 4649 0 0 1-2.974 11.51 6676 6676 0 0 0-3.162 12.233l-.11.42a12.7 12.7 0 0 0-.564 3.358 5.58 5.58 0 0 0 4.019 5.234 5.58 5.58 0 0 0 6.2-2.261 11.1 11.1 0 0 0 1.497-3.606c2.309-10.68 5.342-24.779 8.327-39.131.46-2.188.128-4.04-.951-5.356-1.11-1.354-2.945-2.07-5.316-2.07h-.082q-1.59.016-3.179.046c-1.369.024-2.738.048-4.106.048h-.387a306 306 0 0 0-39.101 2.691c-1.668.213-3.898.818-4.011 3.591-.09 2.21 1.457 3.773 4.039 4.08 1.376.14 2.762.169 4.143.088q8.041-.344 16.081-.71 6.257-.281 12.513-.556a37 37 0 0 1 2.025-.02L90.704 44.398l-1.176-1.072q-3.605-3.3-7.204-6.606c-5.854-5.371-11.906-10.925-17.898-16.348-3.452-3.124-6.301-3.24-9.531-.384l-1.869 1.655c-7.82 6.921-15.907 14.079-23.789 21.2C20.64 50.607 12.13 58.494 5.675 64.501a25 25 0 0 0-3.741 4.476 3.697 3.697 0 0 0 .644 4.858c.7.718 1.656 1.13 2.659 1.145"/></g><defs><clipPath id="a"><path fill="#fff" d="M.735.179h153.583v74.823H.735z"/></clipPath></defs></svg>
